images/pages/about/download_icon.svg

<svg xmlns="http://www.w3.org/2000/svg" viewBox="0 0 15 17" width="15" height="17">
	<defs>
		<clipPath clipPathUnits="userSpaceOnUse" id="cp1">
			<path d="M-752 -579L688 -579L688 4225L-752 4225Z" />
		</clipPath>
	</defs>
	<style>
		tspan { white-space:pre }
		.shp0 { fill: #ffffff } 
	</style>
	<g id="Homepage " clip-path="url(#cp1)">
		<g id="Group 11689">
			<path id="Path 10552" class="shp0" d="M14.35 6L10.35 6L10.35 0L4.35 0L4.35 6L0.35 6L7.35 13L14.35 6ZM0.35 15L0.35 17L14.35 17L14.35 15L0.35 15Z" />
		</g>
	</g>
</svg>

<svg xmlns="http://www.w3.org/2000/svg" viewBox="0 0 15 17" width="15" height="17"><defs><clipPath clipPathUnits="userSpaceOnUse" id="cp1"><path d="M-752-579H688v4804H-752z"/></clipPath></defs><style></style><g id="Homepage" clip-path="url(#cp1)"><g id="Group 11689"><path id="Path 10552" d="M14.35 6h-4V0h-6v6h-4l7 7 7-7zm-14 9v2h14v-2h-14z" fill="#fff"/></g></g></svg>
